X: 311
T: The Keel Row
R: strathspey
M: 4/4
L: 1/8
K: Gmaj
|: B2 G>B c2 A>c | B2 G>B A>FD>c |B2 G>B c2 A>c | B>GA>F G2- G2 :|
|: B<dd>g e2 d>c | B2 G>B A>FD>c |B<dd>g e2 d>c | B>GA>F G2- G2 :|
